qml_ui/images/mobile/settings.svg

<?xml version="1.0" encoding="UTF-8"?>
<svg id="_Слой_1" data-name="Слой_1" xmlns="http://www.w3.org/2000/svg" version="1.1" viewBox="0 0 24 24">
  <!-- Generator: Adobe Illustrator 29.6.1, SVG Export Plug-In . SVG Version: 2.1.1 Build 9)  -->
  <defs>
    <style>
      .st0 {
        stroke-width: 1px;
      }

      .st0, .st1, .st2 {
        stroke: #000;
        stroke-miterlimit: 10;
      }

      .st0, .st2 {
        fill: none;
      }

      .st1 {
        stroke-width: .74px;
      }

      .st3 {
        fill: #fff;
      }

      .st2 {
        stroke-width: .88px;
      }

      .st4 {
        display: none;
      }
    </style>
  </defs>
  <path class="st4" d="M20,6h-8l-2-2h-6c-1.1,0-2,.9-2,2v12c0,1.1.9,2,2,2h16c1.1,0,2-.9,2-2v-10c0-1.1-.9-2-2-2Z"/>
  <g id="SUPPORT" class="st4">
    <path d="M6,9.6c-2,0-3.6,1.6-3.6,3.6s1.6,3.6,3.6,3.6v-7.2Z"/>
    <path d="M18,9.6c2,0,3.6,1.6,3.6,3.6s-1.6,3.6-3.6,3.6v-7.2Z"/>
    <path class="st0" d="M19.2,10.3c-.2-3.8-3.3-6.8-7.2-6.8s-6.9,3-7.1,6.8"/>
    <path class="st2" d="M13.1,20.2c4-.2,6.5.1,6-6.7"/>
    <ellipse class="st1" cx="13.2" cy="20.1" rx="1.4" ry=".8"/>
  </g>
  <g id="ABOUT" class="st4">
    <polygon points=".9 12 12 .8 23.1 12 12 23.2 .9 12"/>
    <rect class="st3" x="11" y="7" width="2" height="6"/>
    <rect class="st3" x="11" y="15" width="2" height="2"/>
  </g>
  <g class="st4">
    <ellipse cx="12" cy="12" rx="9.8" ry="9.9"/>
    <path class="st3" d="M11,15v-.5c-.4-1.1-.1-2.3,1-3.6.9-1.1,1.4-1.9,1.4-2.8,0-1.1-.7-1.8-2-1.8-.7,0-1.6.2-2.1.6l-.5-1.3c.7-.5,1.9-.8,3-.8,2.4,0,3.5,1.5,3.5,3,0,1.4-.8,2.4-1.8,3.6-.9,1.1-1.2,2-.5,3v.6h-2ZM10.3,17.9c0-.8.5-1.3,1.2-1.3s1.2.5,1.2,1.3c0,.7-.5,1.3-1.2,1.3-.7,0-1.2-.6-1.2-1.3Z"/>
  </g>
  <path id="settings" class="st3" d="M20.9,13.2c0-.3.1-.8.1-1.2s0-.8-.1-1.2l2.5-2c.2-.2.2-.5.1-.8l-2.3-4.2c-.1-.2-.5-.3-.7-.2l-3,1.2c-.6-.5-1.3-.9-2.1-1.2l-.4-3.1c0-.4-.4-.5-.6-.5h-4.7c-.3,0-.6.2-.6.5l-.5,3.2c-.7.3-1.4.7-2,1.1l-3-1.2c-.3,0-.5.1-.7.3L.6,8.1c-.3.2-.2.6.1.8l2.5,2c-.1.8-.1,1.6,0,2.3l-2.5,2c-.2.2-.2.5-.1.8l2.3,4.2c.1.2.5.3.7.2l3-1.2c.6.5,1.3.9,2.1,1.2l.4,3.1c0,.4.3.5.6.5h4.8c.3,0,.6-.2.6-.5l.5-3.2c.7-.3,1.4-.7,2.1-1.2l3,1.2c.2.1.6,0,.7-.2l2.4-4.2c.1-.2.1-.6-.1-.8l-2.8-1.9h0ZM12,16.5c-2.5,0-4.5-2-4.5-4.5s2-4.5,4.5-4.5,4.5,2,4.5,4.5h0c0,2.5-2.1,4.5-4.5,4.5Z"/>
  <path id="share" class="st4" d="M14.8,19.4l-6.9-4c-1.8,1.8-4.6,1.9-6.4.1s-1.8-4.5,0-6.3c1.8-1.8,4.6-1.9,6.4-.2.1.2.2.3.4.4l6.6-3.4c-.8-2.4.6-5,3.1-5.6,2.4-.8,5,.6,5.6,3.1.6,2.4-.6,5-3.1,5.6-1.4.4-2.9.1-4.1-.8l-7.1,3.7v1l6.5,3.7c1.4-2,4.3-2.6,6.4-1,2,1.4,2.6,4.3,1,6.4-1.5,2-4.3,2.6-6.4,1-1.2-.9-2-2.3-2-3.7h0Z"/>
  <path id="error" class="st4" d="M.1,22h23.9L12.1,1.2.1,22ZM14,20h-3v-2h3v2ZM14,17h-3v-7h3v7Z"/>
  <path id="galka" class="st4" d="M7.7,16.9l-5.7-5.7L.1,13.1l7.6,7.7L24,4.4l-1.9-1.9-14.4,14.4Z"/>
  <path id="arrow_down" class="st4" d="M12,24l5-5.1h-3.7V0h-2.5v18.9h-3.7l4.9,5.1Z"/>
  <path id="arrow_up" class="st4" d="M12,0l-5,5.1h3.8v18.9h2.5V5.1h3.7L12,0Z"/>
  <g id="menu" class="st4">
    <circle cx="12" cy="12" r="2.8"/>
    <circle cx="12" cy="2.8" r="2.8"/>
    <circle cx="12" cy="21.2" r="2.8"/>
  </g>
  <g id="burger" class="st4">
    <rect y="3" width="24" height="3"/>
    <rect y="11" width="24" height="3"/>
    <rect y="18" width="24" height="3"/>
  </g>
  <polygon id="arrow_back" class="st4" points="21.8 10.1 8.8 10.1 16.6 2.4 14.2 0 4.7 9.6 4.7 9.6 2.3 12 2.3 12 2.3 12 4.7 14.4 4.7 14.4 14.2 24 16.6 21.6 8.7 13.7 21.8 13.7 21.8 10.1"/>
  <path id="search" class="st4" d="M16.9,15h-1.1l-.4-.4c3.1-3.7,2.8-9.4-1-12.5C10.8-1,5.3-.7,2.1,3.1-1,6.8-.7,12.5,3.1,15.6c3.3,2.9,8.1,2.9,11.5,0l.4.4v1.1l6.8,6.9,2-2-6.9-7ZM9.1,15h0c-3.4,0-6.2-2.8-6.2-6.2s2.8-6.2,6.2-6.2,6.2,2.8,6.2,6.2-2.9,6.2-6.2,6.2Z"/>
  <polygon id="back" class="st4" points="24 2.1 21.9 0 12 9.9 2.2 0 .1 2.1 10 12 .1 21.9 2.2 24 12 14.1 21.9 24 24 21.9 14.1 12 24 2.1"/>
  <polygon id="plus" class="st4" points="24 13.4 24 10.5 13.5 10.5 13.5 0 10.6 0 10.6 10.5 .1 10.5 .1 13.4 10.6 13.4 10.6 24 13.5 24 13.5 13.4 24 13.4"/>
  <path id="repeat" class="st4" d="M19.6,7.2l-4.3,4.8h3.3c0,3.9-2.9,7.1-6.5,7.1-1.1,0-2.1-.3-3.1-.9l-1.5,1.8c4.1,2.8,9.3,1.5,11.9-2.9.9-1.5,1.4-3.3,1.4-5.1h3.2l-4.4-4.8ZM5.6,12c0-3.9,2.9-7.1,6.5-7.1,1.1,0,2.1.3,3.1.9l1.5-1.8c-4.1-2.9-9.4-1.6-12,2.9-.9,1.5-1.4,3.2-1.4,5.1H.1l4.4,4.8,4.3-4.8h-3.2Z"/>
  <path id="play" class="st4" d="M21.4,12L4,24V0l17.4,12Z"/>
  <g id="pause" class="st4">
    <rect id="Rectangle_1121" x="2" width="7" height="24"/>
    <rect id="Rectangle_1122" x="15" width="7" height="24"/>
  </g>
  <g id="open_folder" class="st4">
    <path d="M23.8,11c-.2-1.1-1.2-2-2.3-2h-12.9l-4.2,11h14.6c.4,0,.7-.1,1.1-.3.6-.3,1.1-.8,1.3-1.5l2.3-6.6c.1-.1.1-.4.1-.6Z"/>
    <path d="M6,8h14.3c-.1-1.6-2-2-2-2h-8.1l-2.1-2H2c-1,0-2,.9-2,2v12.4c0,1,.7,1.9,1.6,2.1L6,7.4v.6Z"/>
  </g>
</svg>

<?xml version="1.0" encoding="utf-8"?>
<!-- Generator: Adobe Illustrator 23.0.6, SVG Export Plug-In . SVG Version: 6.00 Build 0)  -->
<svg version="1.1" id="Слой_1" xmlns="http://www.w3.org/2000/svg" xmlns:xlink="http://www.w3.org/1999/xlink" x="0px" y="0px"
	 viewBox="0 0 24 24" style="enable-background:new 0 0 24 24;" xml:space="preserve">
<style type="text/css">
	.st0{display:none;}
	.st1{display:inline;}
	.st2{display:inline;fill:none;stroke:#000000;stroke-width:0.9959;stroke-miterlimit:10;}
	.st3{display:inline;fill:none;stroke:#000000;stroke-width:0.8825;stroke-miterlimit:10;}
	.st4{display:inline;stroke:#000000;stroke-width:0.7391;stroke-miterlimit:10;}
	.st5{display:inline;fill:#FFFFFF;}
	.st6{fill:#FFFFFF;}
</style>
<g>
	<path class="st0" d="M20,6H12l-2-2h-6c-1.1,0-2,0.9-2,2v12c0,1.1,0.9,2,2,2H20c1.1,0,2-0.9,2-2V8C22,6.9,21.1,6,20,6z"/>
	<g id="SUPPORT" class="st0">
		<path class="st1" d="M6,9.6c-2,0-3.6,1.6-3.6,3.6S4,16.8,6,16.8V9.6z"/>
		<path class="st1" d="M18,9.6c2,0,3.6,1.6,3.6,3.6S20,16.8,18,16.8V9.6z"/>
		<path class="st2" d="M19.2,10.3C19,6.5,15.9,3.5,12,3.5s-6.9,3-7.1,6.8"/>
		<path class="st3" d="M13.1,20.2c4-0.2,6.5,0.1,6-6.7"/>
		<ellipse class="st4" cx="13.2" cy="20.1" rx="1.4" ry="0.8"/>
	</g>
	<g id="ABOUT" class="st0">
		<polygon class="st1" points="0.9,12 12,0.8 23.1,12 12,23.2 		"/>
		<rect x="11" y="7" class="st5" width="2" height="6"/>
		<rect x="11" y="15" class="st5" width="2" height="2"/>
	</g>
	<g class="st0">
		<ellipse class="st1" cx="12" cy="12" rx="9.8" ry="9.9"/>
		<g class="st1">
			<path class="st6" d="M11,15v-0.5c-0.4-1.1-0.1-2.3,1-3.6c0.9-1.1,1.4-1.9,1.4-2.8c0-1.1-0.7-1.8-2-1.8c-0.7,0-1.6,0.2-2.1,0.6
				L8.8,5.6c0.7-0.5,1.9-0.8,3-0.8c2.4,0,3.5,1.5,3.5,3c0,1.4-0.8,2.4-1.8,3.6c-0.9,1.1-1.2,2-0.5,3V15H11L11,15z M10.3,17.9
				c0-0.8,0.5-1.3,1.2-1.3c0.7,0,1.2,0.5,1.2,1.3c0,0.7-0.5,1.3-1.2,1.3C10.8,19.2,10.3,18.6,10.3,17.9z"/>
		</g>
	</g>
	<path id="settings" d="M20.9,13.2c0-0.3,0.1-0.8,0.1-1.2s0-0.8-0.1-1.2l2.5-2c0.2-0.2,0.2-0.5,0.1-0.8l-2.3-4.2
		c-0.1-0.2-0.5-0.3-0.7-0.2l-3,1.2c-0.6-0.5-1.3-0.9-2.1-1.2L15,0.5C15,0.1,14.6,0,14.4,0H9.7C9.4,0,9.1,0.2,9.1,0.5L8.6,3.7
		C7.9,4,7.2,4.4,6.6,4.8l-3-1.2c-0.3,0-0.5,0.1-0.7,0.3L0.6,8.1C0.3,8.3,0.4,8.7,0.7,8.9l2.5,2c-0.1,0.8-0.1,1.6,0,2.3l-2.5,2
		c-0.2,0.2-0.2,0.5-0.1,0.8l2.3,4.2c0.1,0.2,0.5,0.3,0.7,0.2l3-1.2c0.6,0.5,1.3,0.9,2.1,1.2l0.4,3.1c0,0.4,0.3,0.5,0.6,0.5h4.8
		c0.3,0,0.6-0.2,0.6-0.5l0.5-3.2c0.7-0.3,1.4-0.7,2.1-1.2l3,1.2c0.2,0.1,0.6,0,0.7-0.2l2.4-4.2c0.1-0.2,0.1-0.6-0.1-0.8L20.9,13.2
		L20.9,13.2z M12,16.5c-2.5,0-4.5-2-4.5-4.5s2-4.5,4.5-4.5s4.5,2,4.5,4.5l0,0C16.5,14.5,14.4,16.5,12,16.5z"/>
	<path id="share" class="st0" d="M14.8,19.4l-6.9-4c-1.8,1.8-4.6,1.9-6.4,0.1S-0.3,11,1.5,9.2S6.1,7.3,7.9,9C8,9.2,8.1,9.3,8.3,9.4
		L14.9,6c-0.8-2.4,0.6-5,3.1-5.6c2.4-0.8,5,0.6,5.6,3.1c0.6,2.4-0.6,5-3.1,5.6c-1.4,0.4-2.9,0.1-4.1-0.8L9.3,12c0,0.1,0,0.3,0,0.4
		c0,0.3,0,0.4,0,0.6l6.5,3.7c1.4-2,4.3-2.6,6.4-1c2,1.4,2.6,4.3,1,6.4c-1.5,2-4.3,2.6-6.4,1C15.6,22.2,14.8,20.8,14.8,19.4
		L14.8,19.4z"/>
	<path id="error" class="st0" d="M0.1,22H24L12.1,1.2L0.1,22z M14,20h-3v-2h3V20z M14,17h-3v-7h3V17z"/>
	<path id="galka" class="st0" d="M7.7,16.9L2,11.2l-1.9,1.9l7.6,7.7L24,4.4l-1.9-1.9L7.7,16.9z"/>
	<path id="arrow_down" class="st0" d="M12,24l5-5.1h-3.7V0h-2.5v18.9H7.1L12,24z"/>
	<path id="arrow_up" class="st0" d="M12,0L7,5.1h3.8V24h2.5V5.1H17L12,0z"/>
	<g id="menu" class="st0">
		<ellipse class="st1" cx="12" cy="12" rx="2.8" ry="2.8"/>
		<ellipse class="st1" cx="12" cy="2.8" rx="2.8" ry="2.8"/>
		<ellipse class="st1" cx="12" cy="21.2" rx="2.8" ry="2.8"/>
	</g>
	<g id="burger_1_" class="st0">
		<rect x="0" y="3" class="st1" width="24" height="3"/>
		<rect x="0" y="11" class="st1" width="24" height="3"/>
		<rect x="0" y="18" class="st1" width="24" height="3"/>
	</g>
	<polygon id="arrow_back" class="st0" points="21.8,10.1 8.8,10.1 16.6,2.4 14.2,0 4.7,9.6 4.7,9.6 2.3,12 2.3,12 2.3,12 4.7,14.4 
		4.7,14.4 14.2,24 16.6,21.6 8.7,13.7 21.8,13.7 	"/>
	<path id="search" class="st0" d="M16.9,15h-1.1l-0.4-0.4c3.1-3.7,2.8-9.4-1-12.5C10.8-1,5.3-0.7,2.1,3.1c-3.1,3.7-2.8,9.4,1,12.5
		c3.3,2.9,8.1,2.9,11.5,0L15,16v1.1l6.8,6.9l2-2L16.9,15z M9.1,15L9.1,15c-3.4,0-6.2-2.8-6.2-6.2s2.8-6.2,6.2-6.2s6.2,2.8,6.2,6.2
		S12.4,15,9.1,15z"/>
	<polygon id="back" class="st0" points="24,2.1 21.9,0 12,9.9 2.2,0 0.1,2.1 10,12 0.1,21.9 2.2,24 12,14.1 21.9,24 24,21.9 
		14.1,12 	"/>
	<polygon id="plus" class="st0" points="24,13.4 24,10.5 13.5,10.5 13.5,0 10.6,0 10.6,10.5 0.1,10.5 0.1,13.4 10.6,13.4 10.6,24 
		13.5,24 13.5,13.4 	"/>
	<path id="repeat" class="st0" d="M19.6,7.2L15.3,12h3.3c0,3.9-2.9,7.1-6.5,7.1c-1.1,0-2.1-0.3-3.1-0.9L7.5,20
		c4.1,2.8,9.3,1.5,11.9-2.9c0.9-1.5,1.4-3.3,1.4-5.1H24L19.6,7.2z M5.6,12c0-3.9,2.9-7.1,6.5-7.1c1.1,0,2.1,0.3,3.1,0.9L16.7,4
		c-4.1-2.9-9.4-1.6-12,2.9C3.8,8.4,3.3,10.1,3.3,12H0.1l4.4,4.8L8.8,12H5.6z"/>
	<path id="play" class="st0" d="M21.4,12L4,24V0L21.4,12z"/>
	<g id="pause" class="st0">
		<rect id="Rectangle_1121" x="2" class="st1" width="7" height="24"/>
		<rect id="Rectangle_1122" x="15" class="st1" width="7" height="24"/>
	</g>
	<g id="open_folder" class="st0">
		<path class="st1" d="M23.8,11c-0.2-1.1-1.2-2-2.3-2h-0.3H8.6l0,0L4.4,20H19c0.4,0,0.7-0.1,1.1-0.3c0.6-0.3,1.1-0.8,1.3-1.5
			l2.3-6.6C23.8,11.5,23.8,11.2,23.8,11z"/>
		<path class="st1" d="M6,8L6,8L6,8L6,8h14.3c-0.1-1.6-2-2-2-2h-8.1L8.1,4H2C1,4,0,4.9,0,6v12.4c0,1,0.7,1.9,1.6,2.1L6,7.4V8z"/>
	</g>
</g>
</svg>
